X:1
T:[ID 2-30]
T:[ID 2-30]
T:Bezeichnung standardisiert: Gesundheit Herr Nachbar; Waltzer Gesundheit Herr Nachbar da Gl\"aschen ist leer In dieser Quelle auch als: Trinklied. Wenns immer so w\"ar; In dieser Quelle auch als: Waltzer In dieser Quelle auch als: Waltzer oder Schleifer Tantz. In dieser Quelle auch als: Waltzer Wenns immer so w\"ar, so ists recht In anderer Quelle: 1. Walzer - W. M. Visser 1817 (Anm. S. Wascher);
T:Urheber unbekannt Datum in der hier transkribierten schriftlichen Quelle: 1767
C:Urheber unbekannt
C:Datum in der hier transkribierten schriftlichen Quelle: 1767
L:1/8
M:6/8
K:G
V:1 treble 
V:1
 D | GGD GGD | GGD G2 A | BBA BBA | BBA B2 d | dg/d/B/d/ (dc)c | ce/c/A/c/ cBd | dg/d/B/d/ (dc)c | %8
 ce/c/A/c/ cB G/A/ | BBB AAA | ^ccc !fermata!d2 D | GGG/_F/ EEE | c/B/c/A/G/F/ G2 B/d/ | %13
 cc/B/c/e/ dd B/d/ | cc/c/c/e/ d2 B/d/ | cc/B/c/e/ dd B/d/ | cc/A/G/F/ G2 d | ec/e/g/e/ dBG | %18
 F/G/A/B/c/d/ cBd | ec/e/g/e/ dBG | F/G/A/B/c/F/ G2 :| %21

